X: 1
T: The Space Man
C: Doreen Buckoke 1961
% Nottingham Music Database
Z: Phil Rowe (chords added by John Chambers)
M:6/8
K:G
D \
| "G"d2^c d2B | "D7"c2B c2A | "G"B2^A "A7"B2G | "D"A2F D2D \
| "C"E2G  c2e | "G"d2B "C"G2c | "G"B2G "D7"A2F | "G"G3 G2D |
| "G"dBG DGB | dBG d3 | "D7" A2^G A2G | A2F D3 \
| "G"dBG DGB | "D7"A2^G A2F | "C"E2A "D"D2F | "G"G3 "G7"G3 |]
[| "C"ecG EGc | ecG e3 | "G"dBG DGB | "D7"A2^G A3 \
| "A7"^cA[GE] [EC][GE]A | ^c2A B2c | "D"d3 "A7"^c3 | "D7"=c3 A3 |
| "G"dBG DGB | dBG d3 | "D7"A2^G A2G | A2F D3 \
| "G"dBG DGB | "D7"A2^G A2B | "Am"c2B "D"A2B | "G"G3 -G2 |]
%%sep 1 1 500
